icons/Others/shirt-line.svg

<svg viewBox="0 0 24 24" xmlns="http://www.w3.org/2000/svg"><path d="M12.998 20H18.998V16H14.998V14H18.998V6H16.998V11L12.998 9.4V20ZM10.998 20V9.4L6.99805 11V6H4.99805V20H10.998ZM6.99805 4V3H16.998V4H19.998C20.5503 4 20.998 4.44772 20.998 5V21C20.998 21.5523 20.5503 22 19.998 22H3.99805C3.44576 22 2.99805 21.5523 2.99805 21V5C2.99805 4.44772 3.44576 4 3.99805 4H6.99805ZM11.998 8L15.498 5H8.49805L11.998 8Z"/></svg>

<svg xmlns="http://www.w3.org/2000/svg" viewBox="0 0 24 24">
    <g>
        <path fill="none" d="M0 0h24v24H0z"/>
        <path fill-rule="nonzero" d="M13 20h6v-4h-4v-2h4V6h-2v5l-4-1.6V20zm-2 0V9.4L7 11V6H5v14h6zM7 4V3h10v1h3a1 1 0 0 1 1 1v16a1 1 0 0 1-1 1H4a1 1 0 0 1-1-1V5a1 1 0 0 1 1-1h3zm5 4l3.5-3h-7L12 8z"/>
    </g>
</svg>
